X:709
T:Reel 709
M:4/4
K:Gmaj
L:1/8
g>G (3GGG  (3AGF D>G|d>G (3GFG d>cB2|A>F (3AFF A>F (3FEA |c>A (3AAA c>A (3AGF |d>G (3GGG B>G (3GFG |dGGB c2ef|gfga bgfd| (3efg =fd c2|B2|G>g (3gfg d>B (3GAG |c>A (3AAA e>A (3ABA |d>g (3gfg d>G (3GGG |c>A (3AAA c2Bc|d>g (3gfg d>G (3GFG |D>F (3FEF A>Bc2|c>A (3ABA a>g (3fef |gG (3GFG G2|
